X: 10412
Q: "Lively."
M: 2/4
L: 1/16
K: D
!p!A2AA A2AA | .d2.e2.f2 AA | A2AA d2f2 | e2c2A2 AA |\
f2ff f2ff | f2b2f2b2 | f2b2f2e2 | decd B2ff |
f2ff f2ff | f2b2f2b2 | f2b2a2^g2 | a2^g2a2x2 & a4x2z2 |\
"^cres."e2"^>"e4f2 | g2"^>"e4g2 | f2"^>"d4f2 | e4z2f2 |\
e2"^>"e4f2 | g2"^>"e4g2 | f2"^>"d4f2 | He4"^D.C."z4 :|


